X: 1701
T: Semt-i Dildâre Bu Demler
C: Suphi Ziya Özbekkan
O: Turkey
F: http://compmusic.upf.edu/node/140
N: saba--sarki--aksak--semt-i_dildare--suphi_ziya_ozbekkan
N: makam= saba
N: form= sarki
N: usul= aksak = 9/8
M: 9/8
L: 1/16
K: C _2/4B _3/4d  
Q: 1/4=108
%%MIDI tuningsystem comma53
A4 zA2B c2{d}cB c2{d}c2 d2 | e2 {f}edc2 d2dc cBB2 c2BA  | 
w:  *  Semt_ i  dil *  *  *  dâ  |  *  *  *  *  re  bu  dem *  *  *  ler   | 
A4 z2ef edcB c2{d}c2 d2 | dc2BA2 B2c4cd cBBA  | 
w:  *  se fe rin  *  *  *  var   |  *  *  *  mı  sa bâ   SAZ  | 
A4 zA2B c2{d}cB c2{d}c2 d2 | e2 {f}edc2 d2dc cBB2 c2BA  | 
w:  *  Semt_ i  dil *  *  *  dâ  |  *  *  *  *  re  bu  dem *  *  *  ler   | 
A4 z2ef edcB c2{d}c2 d2 | dc2BA2 B2c4cd cBAB  | 
w:  *  se fe rin  *  *  *  var   |  *  *  *  mı  sa bâ   SAZ  | 
c4 z2cd e2f2 _7/8agfe d2 | cd2cB2 c2cB {c}BAA4(3BAB  | 
w:  *  Dil_ i  has *  ret  |  *  *  *  ze de ye  *  *  *  *  nev  | 
G4 z2AB cd{e}dc c4 BA | B2 ABc2 BAA4cd cBAB  | 
w:  *  ha be rin  *  *  *  *  var   |  *  *  *  mı  sa *  bâ   SAZ  | 
c4 z2cd e2f2 _7/8agfe d2 | cd2cB2 c2cB {c}BAA4(3BAB  | 
w:  *  Dil_ i  has *  ret  |  *  *  *  ze de ye  *  *  *  *  nev  | 
G4 z2AB cd{e}dc c4 BA | B2 ABc2 BAA4f4eg  | 
w:  *  ha be rin  *  *  *  *  var   |  *  *  *  mı  sa *  bâ   SAZ  | 
f4 z=d2e f4 g4 (3fef | g2 (3fefg2 _7/8aggf {g}fee6  | 
w:  *  Ben  gi rif târ_  |  *  *  *  *  ı  e *  lem   | 
e4 zfef g4 c'_1/4b_7/8ag f2 | g3f_7/8a2 {_1/4b}aggf {g}fef4eg  | 
w:  *  bül *  bül_ i  ef  |  gan *  ze *  de *  yim   *  *  *  *  *  SAZ  | 
f4 zfef _7/8a4 g2f2 ef | ed cBc2 _7/8a2gf {g}fef6  | 
w:  *  Ben  *  gi rif târ_  |  *  *  *  *  ı  e lem   | 
f4 z_7/8aga gfed c2d2 {e}dc | c2 {d}cBA2 B2c4cd cBAB  | 
w:  *  bül *  bül_ i  *  *  *  ef  |  gan *  *  *  ze de yim   SAZ  | 
c4 zc2d e2f2 _7/8agfe d2 | cd2cB2 c2cB {c}BAA4(3BAB  | 
w:  *  Verd_ i  bâğ_ *  ı   |  *  *  *  e le min *  *  *  *  de   | 
G4 z2AB cd{e}dc c4 BA | B2 ABc2 BAA8z2  | \
w:  *  gü ze rin  *  *  *  *  var   |  *  *  *  mı  sa *  bâ    | 
c4 z2cd e2f2 _7/8agfe d2 | 
w:  *  Dil_ i  has *  ret  | 
cd2cB2 c2cB {c}BAA4(3BAB  | G4 z2AB cd{e}dc c4 BA | 
w:  *  *  *  ze de ye  *  *  *  *  nev  |  *  ha be rin  *  *  *  *  var   | 
B2 ABc2 BAA4|
w:  *  *  *  mı  sa *  bâ    | 


